**kern	**kern	**kern	**kern
*staff3	*staff4	*staff1	*staff2
*clefF4	*clefF4	*clefG2	*clefG2
*k[f#c#]	*k[f#c#]	*k[f#c#]	*k[f#c#]
*M2/4	*M2/4	*M2/4	*M2/4
*D:	*D:	*D:	*D:
=-	=-	=-	=-
2r	2r	(4a	2r
.	.	[4gg)	.
*	*	*	*clefF4
=380	=380	=380	=380
2r	4r	(16ggLL]	(4D
.	.	16ff#	.
.	.	16ee	.
.	.	16ddJJ)	.
.	4r	4dd	[4d)
=381	=381	=381	=381
2r	(4AA	2r	(16dLL]
.	.	.	16c#
.	.	.	16B
.	.	.	16AJJ)
.	[4G)	.	4A
=382	=382	=382	=382
4FFF#	(16GLL]	4d	2r
.	16F#	.	.
.	16E	.	.
.	16DJJ)	.	.
4r	8DL	[4dd	.
.	(8FF#J	.	.
=383	=383	=383	=383
2r	8EEL)	(16ddLL]	4BB
.	.	16cc#	.
.	8C#J	16b	.
.	.	16aJJ)	.
.	(4CC#	[4gg	[4C#
=384	=384	=384	=384
2r	4DD)	(16ggLL]	8C#]
.	.	16ff#	.
.	.	16ee	8r
.	.	16ddJJ)	.
.	[4D	(16ddLL	8AA
.	.	16cc#	.
.	.	16b	8r
.	.	16aJJ)	.
=385	=385	=385	=385
2r	(16DLL]	[4a	4EE 4GG
.	16C#	.	.
.	16BB	.	.
.	16AAJJ)	.	.
.	[4AA	(16aLL]	4r
.	.	16g	.
.	.	16f#	.
.	.	16eJJ)	.
=386	=386	=386	=386
2r	(16AALL]	4d	2r
.	16GG	.	.
.	16FF#	.	.
.	16EEJJ)	.	.
.	4DD'	4r	.
=387:|!	=387:|!	=387:|!	=387:|!
*-	*-	*-	*-
